trafik_levhalari/bilgi/14.svg

<svg viewBox="0 0 100.33 151.35" xmlns="http://www.w3.org/2000/svg"><defs><style>.cls-1{fill:none;}.cls-2{clip-path:url(#a);}.cls-3{fill:#00408c;}.cls-3,.cls-4,.cls-8{fill-rule:evenodd;}.cls-3,.cls-4,.cls-5,.cls-8{isolation:isolate;}.cls-4,.cls-6{fill:#fff;}.cls-5{fill:#007c06;}.cls-7{fill:red;}</style><clipPath id="a" transform="translate(0)"><rect class="cls-1" x="-4.46" y="-9.08" width="117.23" height="170.59"/></clipPath></defs><g class="cls-2"><path class="cls-3" transform="translate(0)" d="M0,0H100.33V151.35H0Z"/><path class="cls-4" transform="translate(0)" d="M14.09,85.58V112H86.62V85.58Zm8.07,24.14H47.35V87.08H22.16Z"/><path class="cls-4" transform="translate(0)" d="M14.09,57.13V83.57H86.62V57.13Zm8.07,24.14H47.35V58.62H22.16Z"/><path class="cls-4" transform="translate(0)" d="M14.09,28.69V55.13H86.62V28.69Z"/><rect class="cls-5" x="20.58" y="115.26" width="28.92" height="24.3"/><path class="cls-6" transform="translate(0)" d="M50,22.45V12.38"/><path class="cls-6" transform="translate(0)" d="M62.1,22.45V12.38"/><path class="cls-6" transform="translate(0)" d="m63.92 12.38v10.07"/><path class="cls-7" transform="translate(0)" d="m71.57 53.45a11.3 11.3 0 1 1 11.3-11.3 11.31 11.31 0 0 1-11.3 11.3zm0-2a9.27 9.27 0 1 0-9.26-9.27 9.26 9.26 0 0 0 9.26 9.24z"/><path class="cls-4" transform="translate(0)" d="M8,2.06a6.12,6.12,0,0,0-6.11,6.1v135A6.12,6.12,0,0,0,8,149.28H92.59a6.12,6.12,0,0,0,6.11-6.1V8.16a6.12,6.12,0,0,0-6.11-6.1ZM8,4.17H92.59a4,4,0,0,1,4,4v135a4,4,0,0,1-4,4H8a4,4,0,0,1-4-4V8.16A4,4,0,0,1,8,4.17Z"/><path class="cls-6" transform="translate(0)" d="M19.85,13.89H16.94v8.22H15.13V13.89H12.24V12.1h7.61Z"/><path class="cls-6" transform="translate(0)" d="M23.31,9v1.85H25.1V9Zm6.26,0v1.84h1.81V9Zm0,3v5.9a2.47,2.47,0,0,1-.3,1.31,2.23,2.23,0,0,1-3.85,0,2.57,2.57,0,0,1-.32-1.31V12H23.31v6A4,4,0,0,0,24.45,21a4.14,4.14,0,0,0,5.79,0,4,4,0,0,0,1.14-2.94V12Z"/><path class="cls-6" transform="translate(0)" d="M44.71,22.21H42.59L40.21,18H38.44v4.25H36.61V12.07h4.7a6.09,6.09,0,0,1,.94,0,2.86,2.86,0,0,1,1.31.59,2.92,2.92,0,0,1,1.16,2.45A2.79,2.79,0,0,1,43.9,17a3.2,3.2,0,0,1-1.61.89ZM42.9,15a1.12,1.12,0,0,0-.44-.9,1,1,0,0,0-.4-.18,1.27,1.27,0,0,0-.34,0H38.45v2.22h2.87A2.39,2.39,0,0,0,42.2,16a1.08,1.08,0,0,0,.41-.29A1.41,1.41,0,0,0,42.9,15Z"/><path class="cls-6" transform="translate(0)" d="m77.28 12.07-4.11 6v4h-1.8v-4l-4.12-6h2.18l2.83 4.14 2.83-4.14z"/><path class="cls-6" transform="translate(0)" d="m88.24 22.19h-7.34v-10.19h7.34v1.82h-5.49v2.24h3.45v1.86h-3.47v2.45h5.49z"/><path class="cls-8" transform="translate(0)" d="M19,44.89l2.78-2.18,2.78,2.35v3.37h.93V40.09l3.36-2.21,3.37,2.21v9.56h1.43v-4.9l3.58-2,3.6,2.09v4.85h1.56V45.06l4.23-2.35,4.1,2.4v5.53H19Z"/><path class="cls-4" transform="translate(0)" d="M14.09,114v26.45H86.62V114Zm8.07,24.14H47.35V115.53H22.16Z"/><path class="cls-7" transform="translate(0)" d="m71.58 138.64a11.3 11.3 0 1 1 11.3-11.3 11.31 11.31 0 0 1-11.3 11.3zm0-2a9.27 9.27 0 1 0-9.27-9.27 9.25 9.25 0 0 0 9.27 9.24z"/><path class="cls-7" transform="translate(0)" d="m71.58 81.74a11.3 11.3 0 1 1 11.3-11.3 11.31 11.31 0 0 1-11.3 11.3zm0-2a9.27 9.27 0 1 0-9.27-9.27 9.26 9.26 0 0 0 9.27 9.24z"/><path class="cls-7" transform="translate(0)" d="m71.58 110.31a11.3 11.3 0 1 1 11.3-11.31 11.31 11.31 0 0 1-11.3 11.31zm0-2a9.27 9.27 0 1 0-9.27-9.31 9.26 9.26 0 0 0 9.27 9.28z"/></g><path class="cls-6" transform="translate(0)" d="M57.77,22.21H55.56l-3.29-4.8-.76.74v4.06H49.69V12.09h1.81v3.53l3.65-3.53h2.6l-4.15,4.07Z"/><path class="cls-6" transform="translate(0)" d="M61.8,9.06v1.82h1.81V9.06Zm0,3v10.1h1.81V12.09Z"/><path class="cls-4" transform="translate(0)" d="M33.35,116.81l-1.87,4.45h2.83l.18-4.45Zm1.67,0,.17,4.45H38l-1.89-4.45Zm-8.11,4.71v.54h1.75l-.26,1.76h1.35l-.27-1.76H40l-.28,1.76h1.38l-.28-1.76h1.74v-.54Zm8.32,1L35.84,137h8.79l-6.09-14.55Zm-4.24,0L24.86,137h8.83l.57-14.54Z"/><path class="cls-4" transform="translate(0)" d="M33.35,59.72h2.79l6,20.19H27.39Z"/><path class="cls-8" transform="translate(0)" d="M34.63,60.31v.49h.23v-.49Zm.25,1.45h-.25v.62h.26Zm0,1.77H34.6v.7h.29Zm0,2h-.34v.77h.36Zm0,2.31h-.39l0,1H35Zm-.42,2.89,0,1.14H35l0-1.14ZM35,74h-.49l0,1.38H35Zm-.54,4v1.17h.61V78.1Z"/><path class="cls-4" transform="translate(0)" d="M33.38,88.17l-8.49,20.21h8.83l.8-20.21Zm1.66,0,.82,20.21h8.8L36.17,88.17Z"/><path class="cls-8" transform="translate(0)" d="M33.84,88.62l-.11.53h.05l.09-.53Zm1.84,0,.09.53h.06l-.12-.53Zm-2.15,1.46-.11.61,0,0,.11-.63Zm2.44,0,.11.63.06,0L36,90.08Zm-2.78,1.74-.14.68.06,0,.14-.7Zm3.12,0,.12.67h.06l-.12-.67Zm.38,2,.16.78.08,0-.16-.76Zm-3.9,0-.17.76.08,0,.15-.78Zm4.34,2.27.18,1,.11,0-.18-.94Zm-4.8,0-.2,1h.09l.2-1Zm5.36,2.86.23,1.14.12,0-.24-1.14Zm-5.93,0-.24,1.14.11,0,.23-1.14Zm6.56,3.24.26,1.31h.14l-.27-1.33Zm-7.21,0-.28,1.33H31l.25-1.31Zm8.22,5.13.14,0-.3-1.49H39Zm-9-1.51-.28,1.48.14,0,.31-1.51Z"/><path transform="translate(0)" d="M67.46,104H66.15V96.27h-.8V95.2a1.34,1.34,0,0,0,1.13-.6h1Z"/><path transform="translate(0)" d="M71.31,104H70V96.27h-.8V95.2a1.34,1.34,0,0,0,1.13-.6h1Z"/><path transform="translate(0)" d="m75.43 104.15a2.25 2.25 0 0 1-2.11-1.21 10.08 10.08 0 0 1 0-7.28 2.44 2.44 0 0 1 4.22 0 10.08 10.08 0 0 1 0 7.28 2.25 2.25 0 0 1-2.11 1.21zm0-1.32a1.14 1.14 0 0 0 1.11-0.85 8.25 8.25 0 0 0 0.33-2.72 7.85 7.85 0 0 0-0.33-2.66 1.15 1.15 0 0 0-2.22 0 7.85 7.85 0 0 0-0.32 2.66 8.25 8.25 0 0 0 0.33 2.72 1.14 1.14 0 0 0 1.1 0.85z"/><path transform="translate(0)" d="M70.92,69A7.36,7.36,0,0,1,70,72.31a10.71,10.71,0,0,1-2.39,3l-.77-1a9.59,9.59,0,0,0,2.1-2.88,1.35,1.35,0,0,1-.55.11,2.65,2.65,0,0,1-2-.84,3.09,3.09,0,0,1-.71-2.16,3,3,0,0,1,.71-2.13,2.46,2.46,0,0,1,1.92-.79,2.36,2.36,0,0,1,1.89.83A3.8,3.8,0,0,1,70.92,69Zm-1.29-.29a2,2,0,0,0-.36-1.26,1.14,1.14,0,0,0-1-.48,1.18,1.18,0,0,0-1,.44A1.83,1.83,0,0,0,67,68.56a1.88,1.88,0,0,0,.35,1.2,1.18,1.18,0,0,0,1,.44,1.22,1.22,0,0,0,1-.41A1.62,1.62,0,0,0,69.63,68.69Z"/><path transform="translate(0)" d="M74.74,75.34a2.24,2.24,0,0,1-2.11-1.21A7.75,7.75,0,0,1,72,70.48a7.74,7.74,0,0,1,.67-3.63,2.45,2.45,0,0,1,4.23,0,7.74,7.74,0,0,1,.67,3.63,7.75,7.75,0,0,1-.67,3.65A2.25,2.25,0,0,1,74.74,75.34Zm0-1.32a1.12,1.12,0,0,0,1.11-.85,8.2,8.2,0,0,0,.34-2.72,7.8,7.8,0,0,0-.34-2.66,1.15,1.15,0,0,0-2.21,0,7.55,7.55,0,0,0-.34,2.66,7.94,7.94,0,0,0,.34,2.72A1.12,1.12,0,0,0,74.74,74Z"/><path transform="translate(0)" d="M66.07,132.2H64.75v-7.72H64v-1.06a1.33,1.33,0,0,0,1.13-.6h1Z"/><path transform="translate(0)" d="M72.73,129.66a2.67,2.67,0,0,1-.74,1.93,2.44,2.44,0,0,1-1.87.77,2.52,2.52,0,0,1-1.86-.73,2.76,2.76,0,0,1-.77-1.9h1.32a1.54,1.54,0,0,0,.42,1,1.28,1.28,0,0,0,1.83,0,1.41,1.41,0,0,0,.38-1,2.21,2.21,0,0,0-.36-1.27,1,1,0,0,0-.86-.53h-.36v-1.32h.28a.93.93,0,0,0,.78-.4,1.61,1.61,0,0,0,.28-1,1.24,1.24,0,0,0-.29-.86,1,1,0,0,0-.79-.31,1,1,0,0,0-.7.26,1.15,1.15,0,0,0-.32.72H67.8a2.48,2.48,0,0,1,.73-1.65,2.2,2.2,0,0,1,1.59-.65,2.23,2.23,0,0,1,1.69.7,2.44,2.44,0,0,1,.68,1.78,2.3,2.3,0,0,1-.92,2A2.69,2.69,0,0,1,72.73,129.66Z"/><path transform="translate(0)" d="m76.55 132.36a2.23 2.23 0 0 1-2.11-1.21 10.06 10.06 0 0 1 0-7.27 2.24 2.24 0 0 1 2.11-1.22 2.26 2.26 0 0 1 2.12 1.22 10.2 10.2 0 0 1 0 7.27 2.26 2.26 0 0 1-2.12 1.21zm0-1.31a1.15 1.15 0 0 0 1.11-0.86 8.14 8.14 0 0 0 0.33-2.71 7.81 7.81 0 0 0-0.33-2.66 1.15 1.15 0 0 0-2.22 0 7.81 7.81 0 0 0-0.33 2.66 8.14 8.14 0 0 0 0.33 2.71 1.15 1.15 0 0 0 1.11 0.86z"/><path transform="translate(0)" d="M70.94,43.57a3.66,3.66,0,0,1-.88,2.48,2.62,2.62,0,0,1-2.07,1,3.93,3.93,0,0,1-2.17-.56l.75-1.12a2.61,2.61,0,0,0,1.35.34,1.76,1.76,0,0,0,1.21-.69,2.25,2.25,0,0,0,.48-1.5,1.85,1.85,0,0,0-.36-1.14,1.17,1.17,0,0,0-2,.11H66.08l.07-5h4.41v1.32H67.43l0,2a2.18,2.18,0,0,1,1-.21,2.35,2.35,0,0,1,1.88.87A3.18,3.18,0,0,1,70.94,43.57Z"/><path transform="translate(0)" d="M74.79,47.08a2.23,2.23,0,0,1-2.11-1.21A7.7,7.7,0,0,1,72,42.22a7.65,7.65,0,0,1,.68-3.62,2.43,2.43,0,0,1,4.22,0,7.65,7.65,0,0,1,.68,3.62,7.7,7.7,0,0,1-.68,3.65A2.23,2.23,0,0,1,74.79,47.08Zm0-1.32a1.14,1.14,0,0,0,1.11-.85,8.18,8.18,0,0,0,.33-2.71,7.77,7.77,0,0,0-.33-2.66,1.15,1.15,0,0,0-2.22,0,7.77,7.77,0,0,0-.33,2.66,8.18,8.18,0,0,0,.33,2.71A1.14,1.14,0,0,0,74.79,45.76Z"/></svg>

<svg id="svg25194" xmlns="http://www.w3.org/2000/svg" xmlns:xlink="http://www.w3.org/1999/xlink" viewBox="0 0 100.33 151.35"><defs><style>.cls-1{fill:none;}.cls-2{clip-path:url(#clip-path);}.cls-3{fill:#00408c;}.cls-3,.cls-4,.cls-8{fill-rule:evenodd;}.cls-3,.cls-4,.cls-5,.cls-8{isolation:isolate;}.cls-4,.cls-6{fill:#fff;}.cls-5{fill:#007c06;}.cls-7{fill:red;}</style><clipPath id="clip-path" transform="translate(0 0)"><rect class="cls-1" x="-4.46" y="-9.08" width="117.23" height="170.59"/></clipPath></defs><g id="g7211"><g id="g7443"><g id="g7445"><g class="cls-2"><g id="g7447"><path id="rect42133" class="cls-3" d="M0,0H100.33V151.35H0Z" transform="translate(0 0)"/><path id="path42622" class="cls-4" d="M14.09,85.58V112H86.62V85.58Zm8.07,24.14H47.35V87.08H22.16Z" transform="translate(0 0)"/><path id="rect42528" class="cls-4" d="M14.09,57.13V83.57H86.62V57.13Zm8.07,24.14H47.35V58.62H22.16Z" transform="translate(0 0)"/><path id="path42620" class="cls-4" d="M14.09,28.69V55.13H86.62V28.69Z" transform="translate(0 0)"/><rect id="rect43396" class="cls-5" x="20.58" y="115.26" width="28.92" height="24.3"/><path id="path46825" class="cls-6" d="M50,22.45V12.38" transform="translate(0 0)"/><path id="path46831" class="cls-6" d="M62.1,22.45V12.38" transform="translate(0 0)"/><path id="path46835" class="cls-6" d="M63.92,12.38V22.45" transform="translate(0 0)"/><path id="path43280" class="cls-7" d="M71.57,53.45a11.3,11.3,0,1,1,11.3-11.3A11.31,11.31,0,0,1,71.57,53.45Zm0-2a9.27,9.27,0,1,0-9.26-9.27A9.26,9.26,0,0,0,71.57,51.42Z" transform="translate(0 0)"/><path id="path42140" class="cls-4" d="M8,2.06a6.12,6.12,0,0,0-6.11,6.1v135A6.12,6.12,0,0,0,8,149.28H92.59a6.12,6.12,0,0,0,6.11-6.1V8.16a6.12,6.12,0,0,0-6.11-6.1ZM8,4.17H92.59a4,4,0,0,1,4,4v135a4,4,0,0,1-4,4H8a4,4,0,0,1-4-4V8.16A4,4,0,0,1,8,4.17Z" transform="translate(0 0)"/><g id="text18072"><path id="path18075-8" class="cls-6" d="M19.85,13.89H16.94v8.22H15.13V13.89H12.24V12.1h7.61Z" transform="translate(0 0)"/></g><path id="path50002" class="cls-6" d="M23.31,9v1.85H25.1V9Zm6.26,0v1.84h1.81V9Zm0,3v5.9a2.47,2.47,0,0,1-.3,1.31,2.23,2.23,0,0,1-3.85,0,2.57,2.57,0,0,1-.32-1.31V12H23.31v6A4,4,0,0,0,24.45,21a4.14,4.14,0,0,0,5.79,0,4,4,0,0,0,1.14-2.94V12Z" transform="translate(0 0)"/><path id="path119092" class="cls-6" d="M44.71,22.21H42.59L40.21,18H38.44v4.25H36.61V12.07h4.7a6.09,6.09,0,0,1,.94,0,2.86,2.86,0,0,1,1.31.59,2.92,2.92,0,0,1,1.16,2.45A2.79,2.79,0,0,1,43.9,17a3.2,3.2,0,0,1-1.61.89ZM42.9,15a1.12,1.12,0,0,0-.44-.9,1,1,0,0,0-.4-.18,1.27,1.27,0,0,0-.34,0H38.45v2.22h2.87A2.39,2.39,0,0,0,42.2,16a1.08,1.08,0,0,0,.41-.29A1.41,1.41,0,0,0,42.9,15Z" transform="translate(0 0)"/><g id="text17994"><path id="path17996" class="cls-6" d="M77.28,12.07l-4.11,6v4h-1.8v-4l-4.12-6h2.18l2.83,4.14,2.83-4.14Z" transform="translate(0 0)"/></g><path id="path49967" class="cls-6" d="M88.24,22.19H80.9V12h7.34v1.82l-5.49,0,0,2.24H86.2v1.86H82.73l0,2.45h5.49Z" transform="translate(0 0)"/><path id="rect43343" class="cls-8" d="M19,44.89l2.78-2.18,2.78,2.35v3.37h.93V40.09l3.36-2.21,3.37,2.21v9.56h1.43v-4.9l3.58-2,3.6,2.09v4.85h1.56V45.06l4.23-2.35,4.1,2.4v5.53H19Z" transform="translate(0 0)"/><path id="path42624" class="cls-4" d="M14.09,114v26.45H86.62V114Zm8.07,24.14H47.35V115.53H22.16Z" transform="translate(0 0)"/><path id="path43394" class="cls-7" d="M71.58,138.64a11.3,11.3,0,1,1,11.3-11.3A11.31,11.31,0,0,1,71.58,138.64Zm0-2a9.27,9.27,0,1,0-9.27-9.27A9.25,9.25,0,0,0,71.58,136.61Z" transform="translate(0 0)"/><path id="path43318" class="cls-7" d="M71.58,81.74a11.3,11.3,0,1,1,11.3-11.3A11.31,11.31,0,0,1,71.58,81.74Zm0-2a9.27,9.27,0,1,0-9.27-9.27A9.26,9.26,0,0,0,71.58,79.71Z" transform="translate(0 0)"/><path id="path43392" class="cls-7" d="M71.58,110.31A11.3,11.3,0,1,1,82.88,99,11.31,11.31,0,0,1,71.58,110.31Zm0-2A9.27,9.27,0,1,0,62.31,99,9.26,9.26,0,0,0,71.58,108.28Z" transform="translate(0 0)"/></g></g></g></g><path id="path82556" class="cls-6" d="M57.77,22.21H55.56l-3.29-4.8-.76.74v4.06H49.69V12.09h1.81v3.53l3.65-3.53h2.6l-4.15,4.07Z" transform="translate(0 0)"/><path id="path82574" class="cls-6" d="M61.8,9.06v1.82h1.81V9.06Zm0,3v10.1h1.81V12.09Z" transform="translate(0 0)"/><path id="path43356" class="cls-4" d="M33.35,116.81l-1.87,4.45h2.83l.18-4.45Zm1.67,0,.17,4.45H38l-1.89-4.45Zm-8.11,4.71v.54h1.75l-.26,1.76h1.35l-.27-1.76H40l-.28,1.76h1.38l-.28-1.76h1.74v-.54Zm8.32,1L35.84,137h8.79l-6.09-14.55Zm-4.24,0L24.86,137h8.83l.57-14.54Z" transform="translate(0 0)"/><path id="rect42547" class="cls-4" d="M33.35,59.72h2.79l6,20.19H27.39Z" transform="translate(0 0)"/><path id="rect42550" class="cls-8" d="M34.63,60.31v.49h.23v-.49Zm.25,1.45h-.25v.62h.26Zm0,1.77H34.6v.7h.29Zm0,2h-.34v.77h.36Zm0,2.31h-.39l0,1H35Zm-.42,2.89,0,1.14H35l0-1.14ZM35,74h-.49l0,1.38H35Zm-.54,4v1.17h.61V78.1Z" transform="translate(0 0)"/><g id="layer1-6"><path id="path43346" class="cls-4" d="M33.38,88.17l-8.49,20.21h8.83l.8-20.21Zm1.66,0,.82,20.21h8.8L36.17,88.17Z" transform="translate(0 0)"/><path id="rect24366" class="cls-8" d="M33.84,88.62l-.11.53h.05l.09-.53Zm1.84,0,.09.53h.06l-.12-.53Zm-2.15,1.46-.11.61,0,0,.11-.63Zm2.44,0,.11.63.06,0L36,90.08Zm-2.78,1.74-.14.68.06,0,.14-.7Zm3.12,0,.12.67h.06l-.12-.67Zm.38,2,.16.78.08,0-.16-.76Zm-3.9,0-.17.76.08,0,.15-.78Zm4.34,2.27.18,1,.11,0-.18-.94Zm-4.8,0-.2,1h.09l.2-1Zm5.36,2.86.23,1.14.12,0-.24-1.14Zm-5.93,0-.24,1.14.11,0,.23-1.14Zm6.56,3.24.26,1.31h.14l-.27-1.33Zm-7.21,0-.28,1.33H31l.25-1.31Zm8.22,5.13.14,0-.3-1.49H39Zm-9-1.51-.28,1.48.14,0,.31-1.51Z" transform="translate(0 0)"/></g></g><path d="M67.46,104H66.15V96.27h-.8V95.2a1.34,1.34,0,0,0,1.13-.6h1Z" transform="translate(0 0)"/><path d="M71.31,104H70V96.27h-.8V95.2a1.34,1.34,0,0,0,1.13-.6h1Z" transform="translate(0 0)"/><path d="M75.43,104.15a2.25,2.25,0,0,1-2.11-1.21,10.08,10.08,0,0,1,0-7.28,2.44,2.44,0,0,1,4.22,0,10.08,10.08,0,0,1,0,7.28A2.25,2.25,0,0,1,75.43,104.15Zm0-1.32a1.14,1.14,0,0,0,1.11-.85,8.25,8.25,0,0,0,.33-2.72,7.85,7.85,0,0,0-.33-2.66,1.15,1.15,0,0,0-2.22,0A7.85,7.85,0,0,0,74,99.26a8.25,8.25,0,0,0,.33,2.72A1.14,1.14,0,0,0,75.43,102.83Z" transform="translate(0 0)"/><path d="M70.92,69A7.36,7.36,0,0,1,70,72.31a10.71,10.71,0,0,1-2.39,3l-.77-1a9.59,9.59,0,0,0,2.1-2.88,1.35,1.35,0,0,1-.55.11,2.65,2.65,0,0,1-2-.84,3.09,3.09,0,0,1-.71-2.16,3,3,0,0,1,.71-2.13,2.46,2.46,0,0,1,1.92-.79,2.36,2.36,0,0,1,1.89.83A3.8,3.8,0,0,1,70.92,69Zm-1.29-.29a2,2,0,0,0-.36-1.26,1.14,1.14,0,0,0-1-.48,1.18,1.18,0,0,0-1,.44A1.83,1.83,0,0,0,67,68.56a1.88,1.88,0,0,0,.35,1.2,1.18,1.18,0,0,0,1,.44,1.22,1.22,0,0,0,1-.41A1.62,1.62,0,0,0,69.63,68.69Z" transform="translate(0 0)"/><path d="M74.74,75.34a2.24,2.24,0,0,1-2.11-1.21A7.75,7.75,0,0,1,72,70.48a7.74,7.74,0,0,1,.67-3.63,2.45,2.45,0,0,1,4.23,0,7.74,7.74,0,0,1,.67,3.63,7.75,7.75,0,0,1-.67,3.65A2.25,2.25,0,0,1,74.74,75.34Zm0-1.32a1.12,1.12,0,0,0,1.11-.85,8.2,8.2,0,0,0,.34-2.72,7.8,7.8,0,0,0-.34-2.66,1.15,1.15,0,0,0-2.21,0,7.55,7.55,0,0,0-.34,2.66,7.94,7.94,0,0,0,.34,2.72A1.12,1.12,0,0,0,74.74,74Z" transform="translate(0 0)"/><path d="M66.07,132.2H64.75v-7.72H64v-1.06a1.33,1.33,0,0,0,1.13-.6h1Z" transform="translate(0 0)"/><path d="M72.73,129.66a2.67,2.67,0,0,1-.74,1.93,2.44,2.44,0,0,1-1.87.77,2.52,2.52,0,0,1-1.86-.73,2.76,2.76,0,0,1-.77-1.9h1.32a1.54,1.54,0,0,0,.42,1,1.28,1.28,0,0,0,1.83,0,1.41,1.41,0,0,0,.38-1,2.21,2.21,0,0,0-.36-1.27,1,1,0,0,0-.86-.53h-.36v-1.32h.28a.93.93,0,0,0,.78-.4,1.61,1.61,0,0,0,.28-1,1.24,1.24,0,0,0-.29-.86,1,1,0,0,0-.79-.31,1,1,0,0,0-.7.26,1.15,1.15,0,0,0-.32.72H67.8a2.48,2.48,0,0,1,.73-1.65,2.2,2.2,0,0,1,1.59-.65,2.23,2.23,0,0,1,1.69.7,2.44,2.44,0,0,1,.68,1.78,2.3,2.3,0,0,1-.92,2A2.69,2.69,0,0,1,72.73,129.66Z" transform="translate(0 0)"/><path d="M76.55,132.36a2.23,2.23,0,0,1-2.11-1.21,10.06,10.06,0,0,1,0-7.27,2.24,2.24,0,0,1,2.11-1.22,2.26,2.26,0,0,1,2.12,1.22,10.2,10.2,0,0,1,0,7.27A2.26,2.26,0,0,1,76.55,132.36Zm0-1.31a1.15,1.15,0,0,0,1.11-.86,8.14,8.14,0,0,0,.33-2.71,7.81,7.81,0,0,0-.33-2.66,1.15,1.15,0,0,0-2.22,0,7.81,7.81,0,0,0-.33,2.66,8.14,8.14,0,0,0,.33,2.71A1.15,1.15,0,0,0,76.55,131.05Z" transform="translate(0 0)"/><path d="M70.94,43.57a3.66,3.66,0,0,1-.88,2.48,2.62,2.62,0,0,1-2.07,1,3.93,3.93,0,0,1-2.17-.56l.75-1.12a2.61,2.61,0,0,0,1.35.34,1.76,1.76,0,0,0,1.21-.69,2.25,2.25,0,0,0,.48-1.5,1.85,1.85,0,0,0-.36-1.14,1.17,1.17,0,0,0-2,.11H66.08l.07-5h4.41v1.32H67.43l0,2a2.18,2.18,0,0,1,1-.21,2.35,2.35,0,0,1,1.88.87A3.18,3.18,0,0,1,70.94,43.57Z" transform="translate(0 0)"/><path d="M74.79,47.08a2.23,2.23,0,0,1-2.11-1.21A7.7,7.7,0,0,1,72,42.22a7.65,7.65,0,0,1,.68-3.62,2.43,2.43,0,0,1,4.22,0,7.65,7.65,0,0,1,.68,3.62,7.7,7.7,0,0,1-.68,3.65A2.23,2.23,0,0,1,74.79,47.08Zm0-1.32a1.14,1.14,0,0,0,1.11-.85,8.18,8.18,0,0,0,.33-2.71,7.77,7.77,0,0,0-.33-2.66,1.15,1.15,0,0,0-2.22,0,7.77,7.77,0,0,0-.33,2.66,8.18,8.18,0,0,0,.33,2.71A1.14,1.14,0,0,0,74.79,45.76Z" transform="translate(0 0)"/></svg>
